X:1
T:Title
%%score 1 { 2 | 3 }
L:1/8
Q:1/4=82
M:6/8
K:Eb
V:1 treble nm="Grand Piano, Soprano"
V:2 bass nm="Choir Pad, O, Fear Not the Future!"
V:3 bass 
V:1
 B,B,[B,E] [DF][EG][EG] | [EG][DG][DF] B, [B,E]2 | [_DE]/[DE]/[CA][CE] [CF][B,G][EG] | %3
w: By~Lewis~Sperry~Chafer * * * * *|||
 [EG][EG][EF] [EG] [DF]2 | B,B,[B,E] [DF][EG][DF] | E[EA][GB] [_Gc] [=GB]2 | %6
w: |||
 [GB]/[GB]/[Ge][EB] [Ec][EB][EG] | [EG][EG][DG] [DF] E2 | [EB][DB][DF] [DF][DF][EG] | %9
w: |||
 [DA][EG][DG] [DF] E2 | EE[EG] [EG][DA][EG] | [EG][E=A][EB] [Ec] [DB]2 | %12
w: |||
 [DB][Ee][Ee] [Ee][EB][DA] | [_DG][CF]F [=EG] [FA]2 | [=Ec][_EB][DB] [FB][EB][EG] | %15
w: |||
 E[EG][DG] [DF] E2- | E6 |] %17
w: ||
V:2
 G,G,G, A,B,B, | B,B,A, A, G,2 | G,/G,/A,A, E,E,B, | B,B,=A, A, B,2 | A,G,G, A,B,A, | %5
 G,CB, =A, B,2 | B,/B,/B,B, A,B,B, | B,B,B, A, G,2 | G,B,B, B,B,B, | B,B,B, A, G,2 | %10
 G,G,E, E,F,E, | CCG, =A, B,2 | B,B,B, B,B,B, | B,[K:treble]CC C C2 | =A,[K:bass]B,B, B,B,B, | %15
 G,B,B, A, G,2- | G,6 |] %17
V:3
 E,E,E, E,E,E, | E,B,,B,, D, E,2 | E,/E,/A,,A,, .A,,2 E, | E,F,F, F, B,,2 | D,E,E, E,E,E, | %5
 E,E,E, E, E,2 | E,/E,/E,G, z G,E, | G,,B,,B,, B,, E,2 | E,B,,A, A,A,G, | F,E,B,, B,, E,2 | %10
 E,C,C, C,=B,,C, | C,F,F, F, B,,2 | A,G,G, G,G,F, | E,A,A, G, F,2 | _G,=G,F, A,G,E, | %15
 E,B,,B,, B,, E,2- | E,6 |] %17

